X:12850
T:PASSEPIED de PLOEUC 2
Z: Yves BELOTTEAU
M:6/8
L:1/8
Q:1/4=80
K:G
|GA/2B/2G ABc|d2d c/2B/2AB|cBA2GA/2B/2|GAB cd2|
dc/2B/2A BcB|A2d2AB|cdB AGA/2B/2|GGG F/2G/2A2|
d2A Bcd|edc d/2c/2B2|A2G2de/2d|c/2A/2B/2c/2B/2A/2 G/2de/2d|
c/2A/2B/2A/2G3/2de/2d|c/2A/2B/2c/2B/2A/2 G/2de/2d|c/2A/2B/2A/2G3/2G/2A/2
B/2A/2B/2|A/2G/2F/2G/2A3/2A/2B/2c/2d/2c/2|
B/2A/2d/2c/2B A/2G/2A/2B/2A/2B/2|A/2G/2F/2G/2A3/2A/2B/2c/2d/2c/2|B/2A/2B
/2A/2G3/2|
